!!!OTL: WAS KANN SCHOENER SEIN
!!!ARE: Europa, Mitteleuropa, Schweiz, Emmenthal
!!!SCT: E1480
!!!YEM: Copyright 1995, estate of Helmut Schaffrath.
**kern
*ICvox
*Ivox
*M3/4
*k[f#]
*G:
=1
{8g
8a
16b
16cc
16b
16a
4g
=2
8b
8cc
16dd
16ee
16dd
16cc
4b}
=3
{8dd
8dd
8cc
8cc
8b
8b
=4
8.a
16cc
4b
4r}
=5
{8g
8a
16b
16cc
16b
16a
4g
=6
8b
8cc
16dd
16ee
16dd
16cc
4b}
=7
{8dd
8dd
8cc
8cc
8b
8b
=8
8.a
16cc
4b
4r}
=9
{8.dd
16cc
4.b
8dd
=10
8cc
8b
4a
4a}
=11
{8.dd
16cc
4.b
8dd
=12
8cc
8b
4a
4a}
=13
{8.g
16a
16b
16cc
16b
16a
4g
=14
8.b
16cc
16dd
16ee
16dd
16cc
4b}
=15
{8dd
8dd
8cc
8cc
8b
8b
=16
8.a
16cc
4b
4r}
==
!!!AGN: Staende -, Hirten -, Alpen - Lied, Kuhreihen
!!!ONB: ESAC (Essen Associative Code) Database: ERK3
!!!AMT: simple triple
!!!AIN: vox
!!!EED: Helmut Schaffrath
!!!EEV: 1.0
*-
